X: 102
T: No_197_Song_of_We'nabo'jo.krn
N: Derived from No_197_Song_of_We'nabo'jo.krn
%%abc-version 2.0
%%abcx-abcm2ps-target-version 5.9.1 (29 Sep 2008)
%%abc-creator hum2abc beta
%%abcx-conversion-date 2019/03/15 08:29:13
%%humdrum-veritas 2006361437
%%humdrum-veritas-data 887175184
%%linebreak <none>
%%barnumbers 0
L: 1/8
M: 5/8
%%staves {1 2}
V: 1 clef=bass
V: 2 clef=bass
K: D
[V:1] [K:clef=bass][M:5/8]B,B,B,DD | 
[V:2] [K:clef=bass][M:5/8]G,, (3!accent!G,, z G,, (3!accent!G,, z G,, | 
[V:1] B,B,B,B,2 | 
[V:2] (3:2:1z15/ | 
[V:1] B,B,B,DD ||  
[V:2] (3:2:1z15/ ||  
[V:1] [M:4/8]B, B, B, B, ||  
[V:2] [M:4/8]z4 ||  
[V:1] [M:6/8]B,B,F,B,3 | 
[V:2] [M:6/8]z6 | 
[V:1] B,B,F,B,3 | 
[V:2] z6 | 
[V:1] B,B,F,B,3 |]  
[V:2] z6 |]  



% FRACTION = 0.499634BUT SHOULD BE 0
% FRACTION = 0.499634BUT SHOULD BE 0
% FRACTION = 0.499634BUT SHOULD BE 0
% FRACTION = 0.499634BUT SHOULD BE 0
